public/assets/images/service/10.svg

<svg width="66" height="66" viewBox="0 0 66 66" fill="none" xmlns="http://www.w3.org/2000/svg">
<path fill-rule="evenodd" clip-rule="evenodd" d="M39.513 20.0678C39.2304 20.465 38.6793 20.5578 38.2821 20.2753C35.1319 18.0387 30.8683 18.0386 27.7183 20.2753C27.3211 20.5579 26.77 20.465 26.4874 20.0678C26.2048 19.6706 26.2977 19.1195 26.6949 18.8369C30.4615 16.1625 35.5389 16.1625 39.3055 18.8369C39.7027 19.1195 39.7956 19.6706 39.513 20.0678ZM38.5997 42.7801C37.7637 41.9442 36.4608 41.8703 35.5422 42.5642C35.4488 42.6347 35.3153 42.5683 35.3153 42.4512V30.6074C35.3153 28.5447 32.8011 27.4705 31.3187 28.9529C30.8945 29.3771 30.631 29.9628 30.631 30.6074L30.6169 45.2889C30.6167 45.3949 30.5056 45.463 30.4112 45.4151L26.7069 43.5364C26.7058 43.5358 26.705 43.5354 26.704 43.5349C24.9735 42.7055 22.831 42.8917 22.1447 44.2869C21.9779 44.626 21.9185 45.01 21.9871 45.4151C22.1411 46.3235 22.954 47.3442 24.6799 48.1641C26.4264 48.9938 27.5504 50.3701 27.9033 52.373C28.0436 53.2245 28.1746 54.7598 28.4283 55.5012C28.7026 56.3026 29.3944 57.2779 29.994 58.1799C30.6235 59.127 31.3046 60.1519 31.6738 60.864C31.7364 60.9854 31.8598 61.0553 31.9877 61.0554V61.0562H44.5261C44.6974 61.0562 44.7889 60.9601 44.8566 60.8307C47.0282 56.6791 47.2295 52.6252 47.2295 47.9269C47.2295 45.9756 44.9721 44.9037 43.4715 46.0676C43.3834 46.136 43.2552 46.0811 43.244 45.97C43.0494 44.0574 40.8977 43.2445 39.501 44.3204C39.4125 44.3885 39.2844 44.333 39.2737 44.2218C39.2193 43.6569 38.9985 43.1788 38.5997 42.7801ZM37.9422 8.64889C38.9874 9.69407 39.6363 11.1367 39.6363 12.7241V13.1791C39.6363 13.2571 39.6999 13.3208 39.7779 13.3208H41.5083C41.5863 13.3208 41.6499 13.2571 41.6499 13.1791V12.7241C41.6499 8.44535 38.1459 4.94141 33.8671 4.94141H32.1335C27.8548 4.94141 24.3508 8.44548 24.3508 12.7241V13.1791C24.3508 13.2571 24.4144 13.3208 24.4925 13.3208H26.2227C26.3007 13.3208 26.3643 13.2571 26.3643 13.1791V12.7241C26.3643 9.54926 28.9587 6.9548 32.1335 6.9548H33.8671C35.4544 6.9548 36.8969 7.60358 37.9422 8.64889ZM33.0002 20.6481C37.8077 20.6481 41.2122 25.2854 39.8554 29.8432C39.716 30.311 39.2238 30.5773 38.756 30.4379C38.2882 30.2985 38.0219 29.8062 38.1613 29.3384C39.1779 25.9236 36.628 22.4183 33.0002 22.4183C29.3724 22.4183 26.8226 25.9236 27.8393 29.3383C27.9787 29.8061 27.7125 30.2985 27.2447 30.4377C26.7768 30.5771 26.2845 30.3109 26.1452 29.8431C24.7883 25.2854 28.1927 20.6481 33.0002 20.6481ZM25.6262 22.3315C22.7412 26.2536 23.4407 31.7695 27.2398 34.8556C27.6178 35.1631 27.6751 35.7188 27.3677 36.0968C27.0602 36.4749 26.5045 36.5322 26.1265 36.2247C21.5861 32.5363 20.7594 25.9757 24.2018 21.2872C24.4901 20.8939 25.0428 20.8087 25.4361 21.097C25.8294 21.3854 25.9145 21.9381 25.6262 22.3315ZM18.8274 21.9859V26.0834C18.8274 26.1615 18.7638 26.2251 18.6858 26.2251H13.4021C13.3419 26.2251 13.2905 26.1894 13.2694 26.1329C12.5707 24.2616 10.1392 23.6994 8.69588 25.1427C6.94688 26.8918 8.19323 29.8927 10.6633 29.8927C11.8413 29.8927 12.8688 29.1556 13.2694 28.0872C13.2905 28.0308 13.3418 27.9953 13.4019 27.9953H18.6858C18.7638 27.9953 18.8274 28.059 18.8274 28.137V32.2344C18.8274 32.3123 18.7639 32.3759 18.6859 32.376L15.9683 32.3792C15.7204 32.3607 15.466 32.4462 15.2763 32.6359L11.9741 35.9382C11.9315 35.9808 11.87 35.9919 11.8152 35.9668C9.99701 35.1369 7.88078 36.4608 7.88078 38.5006C7.88078 40.9723 10.8829 42.216 12.6308 40.468C13.464 39.6348 13.6694 38.3874 13.197 37.3486C13.172 37.2938 13.1831 37.2324 13.2257 37.1898L16.233 34.1826C16.2605 34.155 16.2939 34.1411 16.3329 34.1411L18.6856 34.1389C18.7637 34.1389 18.8274 34.2025 18.8274 34.2805V37.3252C18.8274 38.2775 19.6098 39.0598 20.562 39.0598H28.8345C28.9125 39.0598 28.976 38.9962 28.9761 38.9183L28.979 30.6077C28.979 28.4069 30.7724 26.6134 32.9733 26.6134C35.1742 26.6134 36.9676 28.4069 36.9676 30.6077V38.9182C36.9676 38.9962 37.0313 39.0598 37.1093 39.0598H45.4386C46.3909 39.0598 47.1732 38.2775 47.1732 37.3252V34.2805C47.1732 34.2017 47.2362 34.1389 47.315 34.1389L49.6679 34.1409C49.7068 34.1409 49.7404 34.1547 49.768 34.1823L52.775 37.1894C52.8177 37.232 52.8288 37.2935 52.8037 37.3483C51.9738 39.1665 53.2978 41.2827 55.3374 41.2827C57.8093 41.2827 59.0528 38.2805 57.3049 36.5327C56.4717 35.6995 55.2242 35.494 54.1855 35.9666C54.1307 35.9915 54.0693 35.9804 54.0267 35.9378L50.7244 32.6355C50.5038 32.415 50.2876 32.3793 50.0218 32.3792L47.3149 32.3762C47.237 32.376 47.1734 32.3125 47.1734 32.2345V28.1366C47.1734 28.0586 47.237 27.9949 47.315 27.9949H52.5988C52.659 27.9949 52.7104 28.0306 52.7315 28.0871C53.4303 29.9584 55.8617 30.5206 57.305 29.0773C59.054 27.3283 57.8078 24.3273 55.3376 24.3273C54.1596 24.3273 53.132 25.0644 52.7315 26.1328C52.7104 26.1892 52.6591 26.2247 52.599 26.2247H47.3151C47.2371 26.2247 47.1735 26.1611 47.1735 26.0831V21.9851C47.1735 21.9072 47.237 21.8436 47.315 21.8435L50.0326 21.8408C50.2806 21.8593 50.5349 21.7738 50.7246 21.5841L54.0268 18.2819C54.0694 18.2392 54.1309 18.2281 54.1857 18.2532C56.0036 19.0831 58.1201 17.7594 58.1201 15.7195C58.1201 13.2475 55.1179 12.0041 53.3701 13.752C52.5369 14.5852 52.3314 15.8327 52.804 16.8714C52.8289 16.9262 52.8178 16.9876 52.7752 17.0302L49.768 20.0373C49.7404 20.0649 49.707 20.0788 49.6679 20.0788L47.315 20.0807C47.2362 20.0807 47.1732 20.0179 47.1732 19.9391V16.8948C47.1732 15.9425 46.3909 15.1602 45.4386 15.1602H20.562C19.6098 15.1602 18.8274 15.9425 18.8274 16.8948V19.9395C18.8274 20.0175 18.7637 20.0811 18.6856 20.0811L16.3329 20.0789C16.2939 20.0789 16.2604 20.0649 16.233 20.0375L13.2259 17.0304C13.1832 16.9877 13.1721 16.9262 13.1972 16.8714C14.0271 15.0531 12.7033 12.9369 10.6635 12.9369C8.19164 12.9369 6.9482 15.9391 8.69601 17.6869C9.52907 18.52 10.7769 18.7256 11.8154 18.2531C11.8702 18.2281 11.9316 18.2392 11.9742 18.2819L15.2765 21.5841C15.4971 21.8047 15.7133 21.8402 15.9791 21.8403L18.686 21.8439C18.7639 21.8444 18.8274 21.9079 18.8274 21.9859ZM40.5645 21.0971C40.9579 20.8089 41.5106 20.894 41.7988 21.2874C45.3321 26.0994 44.3516 32.8548 39.5721 36.4631C39.1826 36.7572 38.6285 36.6797 38.3344 36.2902C38.0403 35.9007 38.1178 35.3465 38.5073 35.0525C42.5134 32.0281 43.332 26.3595 40.3744 22.3315C40.086 21.938 40.1712 21.3854 40.5645 21.0971Z" fill="#0F62FE"/>
</svg>

<svg xmlns="http://www.w3.org/2000/svg" width="66" height="66" fill="none" viewBox="0 0 66 66"><path fill="#0f62fe" fill-rule="evenodd" d="M39.513 20.068a.883.883 0 0 1-1.23.207 9.15 9.15 0 0 0-10.565 0 .883.883 0 0 1-1.023-1.438 10.91 10.91 0 0 1 12.61 0c.398.282.49.834.208 1.23M38.6 42.78a2.33 2.33 0 0 0-3.058-.216.141.141 0 0 1-.227-.113V30.607c0-2.062-2.514-3.136-3.996-1.654a2.34 2.34 0 0 0-.688 1.654l-.014 14.682a.14.14 0 0 1-.206.126l-3.704-1.879-.003-.001c-1.73-.83-3.873-.643-4.56.752a1.83 1.83 0 0 0-.157 1.128c.154.909.967 1.93 2.693 2.75 1.746.829 2.87 2.205 3.223 4.208.14.852.272 2.387.525 3.128.275.802.966 1.777 1.566 2.679.63.947 1.31 1.972 1.68 2.684a.35.35 0 0 0 .314.191v.001h12.538c.171 0 .263-.096.33-.225 2.172-4.152 2.374-8.206 2.374-12.904 0-1.951-2.258-3.023-3.758-1.86a.141.141 0 0 1-.228-.097c-.195-1.913-2.346-2.725-3.743-1.65a.141.141 0 0 1-.227-.098 2.28 2.28 0 0 0-.674-1.442m-.658-34.13a5.75 5.75 0 0 1 1.694 4.075v.455c0 .078.064.142.142.142h1.73a.14.14 0 0 0 .142-.142v-.455c0-4.279-3.504-7.783-7.783-7.783h-1.733c-4.28 0-7.783 3.504-7.783 7.783v.455c0 .078.063.142.142.142h1.73a.14.14 0 0 0 .141-.142v-.455c0-3.175 2.595-5.77 5.77-5.77h1.733c1.587 0 3.03.65 4.075 1.695M33 20.65c4.808 0 8.212 4.636 6.855 9.194a.884.884 0 1 1-1.694-.505c1.017-3.414-1.533-6.92-5.16-6.92-3.629 0-6.178 3.506-5.162 6.92a.884.884 0 1 1-1.694.505c-1.357-4.558 2.048-9.195 6.855-9.195m-7.374 1.682c-2.885 3.923-2.185 9.439 1.614 12.525a.882.882 0 0 1-1.113 1.369 10.907 10.907 0 0 1-1.925-14.938.883.883 0 1 1 1.424 1.044m-6.799-.345v4.097a.14.14 0 0 1-.141.142h-5.284a.14.14 0 0 1-.133-.092c-.698-1.871-3.13-2.434-4.573-.99-1.75 1.749-.503 4.75 1.967 4.75a2.78 2.78 0 0 0 2.606-1.806.14.14 0 0 1 .133-.092h5.284c.078 0 .141.064.141.142v4.097a.14.14 0 0 1-.141.142l-2.718.003a.88.88 0 0 0-.692.257l-3.302 3.302a.14.14 0 0 1-.159.029c-1.818-.83-3.934.494-3.934 2.534 0 2.471 3.002 3.715 4.75 1.967a2.78 2.78 0 0 0 .566-3.12.14.14 0 0 1 .029-.158l3.007-3.007a.14.14 0 0 1 .1-.042l2.353-.002c.078 0 .141.063.141.142v3.044c0 .953.783 1.735 1.735 1.735h8.272a.14.14 0 0 0 .142-.142l.003-8.31a4 4 0 0 1 3.994-3.995 4 4 0 0 1 3.995 3.995v8.31c0 .078.063.142.141.142h8.33c.952 0 1.734-.782 1.734-1.735v-3.044a.14.14 0 0 1 .142-.142l2.353.002q.058 0 .1.041l3.007 3.007a.14.14 0 0 1 .029.16c-.83 1.818.494 3.934 2.533 3.934 2.472 0 3.716-3.002 1.968-4.75a2.78 2.78 0 0 0-3.12-.566.14.14 0 0 1-.158-.03l-3.303-3.301c-.22-.221-.436-.257-.702-.257l-2.707-.003a.14.14 0 0 1-.142-.142v-4.097c0-.078.064-.142.142-.142h5.284a.14.14 0 0 1 .133.092c.698 1.871 3.13 2.434 4.573.99 1.749-1.749.503-4.75-1.967-4.75a2.78 2.78 0 0 0-2.607 1.806.14.14 0 0 1-.132.092h-5.284a.14.14 0 0 1-.142-.142v-4.098c0-.078.064-.141.142-.142l2.718-.002a.88.88 0 0 0 .692-.257l3.302-3.302a.14.14 0 0 1 .159-.029c1.818.83 3.934-.494 3.934-2.533 0-2.472-3.002-3.716-4.75-1.968a2.78 2.78 0 0 0-.566 3.12.14.14 0 0 1-.029.158l-3.007 3.007a.14.14 0 0 1-.1.042l-2.353.002a.14.14 0 0 1-.142-.142v-3.044c0-.952-.782-1.735-1.734-1.735H20.562c-.952 0-1.735.783-1.735 1.735v3.044a.14.14 0 0 1-.141.142l-2.353-.002a.14.14 0 0 1-.1-.041l-3.007-3.008a.14.14 0 0 1-.029-.159c.83-1.818-.494-3.934-2.533-3.934-2.472 0-3.716 3.002-1.968 4.75a2.78 2.78 0 0 0 3.12.566.14.14 0 0 1 .158.029l3.303 3.302c.22.22.436.256.702.256l2.707.004c.078 0 .141.064.141.142m21.738-.889a.883.883 0 0 1 1.234.19 10.91 10.91 0 0 1-2.227 15.176.884.884 0 1 1-1.065-1.41 9.15 9.15 0 0 0 1.867-12.721.883.883 0 0 1 .19-1.235" clip-rule="evenodd"/></svg>
